images/50273059.svg

<?xml version="1.0" encoding="UTF-8"?>
<svg xmlns="http://www.w3.org/2000/svg" xmlns:xlink="http://www.w3.org/1999/xlink" width="300pt" height="300pt" viewBox="0 0 300 300" version="1.1">
<defs>
<g>
<symbol overflow="visible" id="glyph0-0">
<path style="stroke:none;" d="M 0.59375 2.125 L 0.59375 -8.46875 L 6.59375 -8.46875 L 6.59375 2.125 Z M 1.265625 1.453125 L 5.9375 1.453125 L 5.9375 -7.78125 L 1.265625 -7.78125 Z M 1.265625 1.453125 "/>
</symbol>
<symbol overflow="visible" id="glyph0-1">
<path style="stroke:none;" d="M 7.734375 -8.078125 L 7.734375 -6.828125 C 7.328125 -7.203125 6.898438 -7.476562 6.453125 -7.65625 C 6.003906 -7.84375 5.523438 -7.9375 5.015625 -7.9375 C 4.015625 -7.9375 3.25 -7.628906 2.71875 -7.015625 C 2.1875 -6.398438 1.921875 -5.515625 1.921875 -4.359375 C 1.921875 -3.210938 2.1875 -2.332031 2.71875 -1.71875 C 3.25 -1.101562 4.015625 -0.796875 5.015625 -0.796875 C 5.523438 -0.796875 6.003906 -0.890625 6.453125 -1.078125 C 6.898438 -1.265625 7.328125 -1.539062 7.734375 -1.90625 L 7.734375 -0.671875 C 7.316406 -0.390625 6.875 -0.175781 6.40625 -0.03125 C 5.945312 0.101562 5.460938 0.171875 4.953125 0.171875 C 3.617188 0.171875 2.570312 -0.234375 1.8125 -1.046875 C 1.050781 -1.859375 0.671875 -2.960938 0.671875 -4.359375 C 0.671875 -5.765625 1.050781 -6.875 1.8125 -7.6875 C 2.570312 -8.5 3.617188 -8.90625 4.953125 -8.90625 C 5.472656 -8.90625 5.960938 -8.832031 6.421875 -8.6875 C 6.890625 -8.550781 7.328125 -8.347656 7.734375 -8.078125 Z M 7.734375 -8.078125 "/>
</symbol>
<symbol overflow="visible" id="glyph0-2">
<path style="stroke:none;" d="M 1.125 -9.125 L 2.203125 -9.125 L 2.203125 0 L 1.125 0 Z M 1.125 -9.125 "/>
</symbol>
<symbol overflow="visible" id="glyph0-3">
<path style="stroke:none;" d="M 1.171875 -8.75 L 2.765625 -8.75 L 6.65625 -1.4375 L 6.65625 -8.75 L 7.796875 -8.75 L 7.796875 0 L 6.203125 0 L 2.328125 -7.3125 L 2.328125 0 L 1.171875 0 Z M 1.171875 -8.75 "/>
</symbol>
</g>
</defs>
<g id="surface28169">
<rect x="0" y="0" width="300" height="300" style="fill:rgb(100%,100%,100%);fill-opacity:1;stroke:none;"/>
<path style="fill:none;stroke-width:1.2;stroke-linecap:butt;stroke-linejoin:miter;stroke:rgb(0%,80%,0%);stroke-opacity:1;stroke-miterlimit:10;" d="M 35.25 182.222656 L 49.898438 181.097656 "/>
<path style="fill:none;stroke-width:1.2;stroke-linecap:butt;stroke-linejoin:miter;stroke:rgb(0%,0%,0%);stroke-opacity:1;stroke-miterlimit:10;" d="M 49.898438 181.097656 L 64.542969 179.976562 "/>
<path style=" stroke:none;fill-rule:nonzero;fill:rgb(100%,100%,100%);fill-opacity:1;" d="M 23.25 175.222656 L 35.25 175.222656 L 35.25 189.222656 L 23.25 189.222656 Z M 23.25 175.222656 "/>
<g style="fill:rgb(0%,80%,0%);fill-opacity:1;">
  <use xlink:href="#glyph0-1" x="23.25" y="186.361328"/>
  <use xlink:href="#glyph0-2" x="31.628906" y="186.361328"/>
</g>
<path style="fill:none;stroke-width:1.2;stroke-linecap:butt;stroke-linejoin:miter;stroke:rgb(0%,0%,0%);stroke-opacity:1;stroke-miterlimit:10;" d="M 64.542969 179.976562 L 81.136719 204.222656 "/>
<path style="fill:none;stroke-width:1.2;stroke-linecap:butt;stroke-linejoin:miter;stroke:rgb(0%,0%,0%);stroke-opacity:1;stroke-miterlimit:10;" d="M 71.90625 178.496094 L 85.179688 197.894531 "/>
<path style="fill:none;stroke-width:1.2;stroke-linecap:butt;stroke-linejoin:miter;stroke:rgb(0%,0%,0%);stroke-opacity:1;stroke-miterlimit:10;" d="M 77.246094 153.484375 L 64.542969 179.976562 "/>
<path style="fill:none;stroke-width:1.2;stroke-linecap:butt;stroke-linejoin:miter;stroke:rgb(0%,0%,0%);stroke-opacity:1;stroke-miterlimit:10;" d="M 81.136719 204.222656 L 110.429688 201.976562 "/>
<path style="fill:none;stroke-width:1.2;stroke-linecap:butt;stroke-linejoin:miter;stroke:rgb(0%,0%,0%);stroke-opacity:1;stroke-miterlimit:10;" d="M 110.429688 201.976562 L 118.726562 214.097656 "/>
<path style="fill:none;stroke-width:1.2;stroke-linecap:butt;stroke-linejoin:miter;stroke:rgb(0%,0%,100%);stroke-opacity:1;stroke-miterlimit:10;" d="M 118.726562 214.097656 L 127.019531 226.21875 "/>
<path style="fill:none;stroke-width:1.2;stroke-linecap:butt;stroke-linejoin:miter;stroke:rgb(0%,0%,0%);stroke-opacity:1;stroke-miterlimit:10;" d="M 117.792969 200.496094 L 124.429688 210.195312 "/>
<path style="fill:none;stroke-width:1.2;stroke-linecap:butt;stroke-linejoin:miter;stroke:rgb(0%,0%,100%);stroke-opacity:1;stroke-miterlimit:10;" d="M 124.429688 210.195312 L 131.066406 219.890625 "/>
<path style="fill:none;stroke-width:1.2;stroke-linecap:butt;stroke-linejoin:miter;stroke:rgb(0%,0%,0%);stroke-opacity:1;stroke-miterlimit:10;" d="M 123.128906 175.484375 L 110.429688 201.976562 "/>
<path style="fill:none;stroke-width:1.2;stroke-linecap:butt;stroke-linejoin:miter;stroke:rgb(0%,0%,100%);stroke-opacity:1;stroke-miterlimit:10;" d="M 127.019531 226.21875 L 141.667969 225.097656 "/>
<path style="fill:none;stroke-width:1.2;stroke-linecap:butt;stroke-linejoin:miter;stroke:rgb(0%,0%,0%);stroke-opacity:1;stroke-miterlimit:10;" d="M 141.667969 225.097656 L 156.316406 223.972656 "/>
<path style=" stroke:none;fill-rule:nonzero;fill:rgb(100%,100%,100%);fill-opacity:1;" d="M 123.019531 219.21875 L 132.019531 219.21875 L 132.019531 233.21875 L 123.019531 233.21875 Z M 123.019531 219.21875 "/>
<g style="fill:rgb(0%,0%,100%);fill-opacity:1;">
  <use xlink:href="#glyph0-3" x="123.019531" y="230.357422"/>
</g>
<path style="fill:none;stroke-width:1.2;stroke-linecap:butt;stroke-linejoin:miter;stroke:rgb(0%,0%,0%);stroke-opacity:1;stroke-miterlimit:10;" d="M 156.316406 223.972656 L 169.015625 197.480469 "/>
<path style="fill:none;stroke-width:1.2;stroke-linecap:butt;stroke-linejoin:miter;stroke:rgb(0%,0%,0%);stroke-opacity:1;stroke-miterlimit:10;" d="M 151.351562 218.335938 L 161.511719 197.140625 "/>
<path style="fill:none;stroke-width:1.2;stroke-linecap:butt;stroke-linejoin:miter;stroke:rgb(0%,0%,0%);stroke-opacity:1;stroke-miterlimit:10;" d="M 169.015625 197.480469 L 152.421875 173.234375 "/>
<path style="fill:none;stroke-width:1.2;stroke-linecap:butt;stroke-linejoin:miter;stroke:rgb(0%,0%,0%);stroke-opacity:1;stroke-miterlimit:10;" d="M 152.421875 173.234375 L 123.128906 175.484375 "/>
<path style="fill:none;stroke-width:1.2;stroke-linecap:butt;stroke-linejoin:miter;stroke:rgb(0%,0%,0%);stroke-opacity:1;stroke-miterlimit:10;" d="M 150.023438 180.355469 L 126.589844 182.152344 "/>
<path style="fill:none;stroke-width:1.2;stroke-linecap:butt;stroke-linejoin:miter;stroke:rgb(0%,0%,0%);stroke-opacity:1;stroke-miterlimit:10;" d="M 152.421875 173.234375 L 165.125 146.746094 "/>
<path style="fill:none;stroke-width:1.2;stroke-linecap:butt;stroke-linejoin:miter;stroke:rgb(0%,0%,0%);stroke-opacity:1;stroke-miterlimit:10;" d="M 123.128906 175.484375 L 106.539062 151.238281 "/>
<path style="fill:none;stroke-width:1.2;stroke-linecap:butt;stroke-linejoin:miter;stroke:rgb(0%,0%,0%);stroke-opacity:1;stroke-miterlimit:10;" d="M 106.539062 151.238281 L 77.246094 153.484375 "/>
<path style="fill:none;stroke-width:1.2;stroke-linecap:butt;stroke-linejoin:miter;stroke:rgb(0%,0%,0%);stroke-opacity:1;stroke-miterlimit:10;" d="M 104.136719 158.355469 L 80.703125 160.152344 "/>
<path style="fill:none;stroke-width:1.2;stroke-linecap:butt;stroke-linejoin:miter;stroke:rgb(0%,0%,0%);stroke-opacity:1;stroke-miterlimit:10;" d="M 165.125 146.746094 L 151.15625 120.898438 "/>
<path style="fill:none;stroke-width:1.2;stroke-linecap:butt;stroke-linejoin:miter;stroke:rgb(0%,0%,0%);stroke-opacity:1;stroke-miterlimit:10;" d="M 169.808594 140.875 L 158.636719 120.195312 "/>
<path style="fill:none;stroke-width:1.2;stroke-linecap:butt;stroke-linejoin:miter;stroke:rgb(0%,0%,0%);stroke-opacity:1;stroke-miterlimit:10;" d="M 194.023438 141.449219 L 165.125 146.746094 "/>
<path style="fill:none;stroke-width:1.2;stroke-linecap:butt;stroke-linejoin:miter;stroke:rgb(0%,0%,0%);stroke-opacity:1;stroke-miterlimit:10;" d="M 151.15625 120.898438 L 161.289062 110.261719 "/>
<path style="fill:none;stroke-width:1.2;stroke-linecap:butt;stroke-linejoin:miter;stroke:rgb(0%,0%,100%);stroke-opacity:1;stroke-miterlimit:10;" d="M 161.289062 110.261719 L 171.421875 99.625 "/>
<path style="fill:none;stroke-width:1.2;stroke-linecap:butt;stroke-linejoin:miter;stroke:rgb(0%,0%,0%);stroke-opacity:1;stroke-miterlimit:10;" d="M 124.664062 108.195312 L 151.15625 120.898438 "/>
<path style="fill:none;stroke-width:1.2;stroke-linecap:butt;stroke-linejoin:miter;stroke:rgb(0%,0%,100%);stroke-opacity:1;stroke-miterlimit:10;" d="M 171.421875 99.625 L 197.914062 112.328125 "/>
<path style="fill:none;stroke-width:1.2;stroke-linecap:butt;stroke-linejoin:miter;stroke:rgb(0%,0%,100%);stroke-opacity:1;stroke-miterlimit:10;" d="M 171.421875 99.625 L 164.441406 86.703125 "/>
<path style="fill:none;stroke-width:1.2;stroke-linecap:butt;stroke-linejoin:miter;stroke:rgb(0%,0%,0%);stroke-opacity:1;stroke-miterlimit:10;" d="M 164.441406 86.703125 L 157.457031 73.78125 "/>
<path style=" stroke:none;fill-rule:nonzero;fill:rgb(100%,100%,100%);fill-opacity:1;" d="M 167.421875 92.625 L 176.421875 92.625 L 176.421875 106.625 L 167.421875 106.625 Z M 167.421875 92.625 "/>
<g style="fill:rgb(0%,0%,100%);fill-opacity:1;">
  <use xlink:href="#glyph0-3" x="167.421875" y="103.763672"/>
</g>
<path style="fill:none;stroke-width:1.2;stroke-linecap:butt;stroke-linejoin:miter;stroke:rgb(0%,0%,100%);stroke-opacity:1;stroke-miterlimit:10;" d="M 197.914062 112.328125 L 195.96875 126.886719 "/>
<path style="fill:none;stroke-width:1.2;stroke-linecap:butt;stroke-linejoin:miter;stroke:rgb(0%,0%,0%);stroke-opacity:1;stroke-miterlimit:10;" d="M 195.96875 126.886719 L 194.023438 141.449219 "/>
<path style="fill:none;stroke-width:1.2;stroke-linecap:butt;stroke-linejoin:miter;stroke:rgb(0%,0%,100%);stroke-opacity:1;stroke-miterlimit:10;" d="M 190.675781 114.324219 L 189.117188 125.972656 "/>
<path style="fill:none;stroke-width:1.2;stroke-linecap:butt;stroke-linejoin:miter;stroke:rgb(0%,0%,0%);stroke-opacity:1;stroke-miterlimit:10;" d="M 189.117188 125.972656 L 187.558594 137.621094 "/>
<path style=" stroke:none;fill-rule:nonzero;fill:rgb(100%,100%,100%);fill-opacity:1;" d="M 193.914062 105.328125 L 202.914062 105.328125 L 202.914062 119.328125 L 193.914062 119.328125 Z M 193.914062 105.328125 "/>
<g style="fill:rgb(0%,0%,100%);fill-opacity:1;">
  <use xlink:href="#glyph0-3" x="193.914062" y="116.466797"/>
</g>
<path style="fill:none;stroke-width:1.2;stroke-linecap:butt;stroke-linejoin:miter;stroke:rgb(0%,0%,0%);stroke-opacity:1;stroke-miterlimit:10;" d="M 194.023438 141.449219 L 215.292969 161.714844 "/>
<path style="fill:none;stroke-width:1.2;stroke-linecap:butt;stroke-linejoin:miter;stroke:rgb(0%,0%,0%);stroke-opacity:1;stroke-miterlimit:10;" d="M 215.292969 161.714844 L 229.386719 157.570312 "/>
<path style="fill:none;stroke-width:1.2;stroke-linecap:butt;stroke-linejoin:miter;stroke:rgb(0%,0%,100%);stroke-opacity:1;stroke-miterlimit:10;" d="M 229.386719 157.570312 L 243.480469 153.425781 "/>
<path style="fill:none;stroke-width:1.2;stroke-linecap:butt;stroke-linejoin:miter;stroke:rgb(0%,0%,0%);stroke-opacity:1;stroke-miterlimit:10;" d="M 220.0625 167.515625 L 231.335938 164.203125 "/>
<path style="fill:none;stroke-width:1.2;stroke-linecap:butt;stroke-linejoin:miter;stroke:rgb(0%,0%,100%);stroke-opacity:1;stroke-miterlimit:10;" d="M 231.335938 164.203125 L 242.609375 160.886719 "/>
<path style="fill:none;stroke-width:1.2;stroke-linecap:butt;stroke-linejoin:miter;stroke:rgb(0%,0%,0%);stroke-opacity:1;stroke-miterlimit:10;" d="M 208.378906 190.269531 L 215.292969 161.714844 "/>
<path style="fill:none;stroke-width:1.2;stroke-linecap:butt;stroke-linejoin:miter;stroke:rgb(0%,0%,100%);stroke-opacity:1;stroke-miterlimit:10;" d="M 243.480469 153.425781 L 254.113281 163.558594 "/>
<path style="fill:none;stroke-width:1.2;stroke-linecap:butt;stroke-linejoin:miter;stroke:rgb(0%,0%,0%);stroke-opacity:1;stroke-miterlimit:10;" d="M 254.113281 163.558594 L 264.75 173.691406 "/>
<path style=" stroke:none;fill-rule:nonzero;fill:rgb(100%,100%,100%);fill-opacity:1;" d="M 239.480469 146.425781 L 248.480469 146.425781 L 248.480469 160.425781 L 239.480469 160.425781 Z M 239.480469 146.425781 "/>
<g style="fill:rgb(0%,0%,100%);fill-opacity:1;">
  <use xlink:href="#glyph0-3" x="239.480469" y="157.564453"/>
</g>
<path style="fill:none;stroke-width:1.2;stroke-linecap:butt;stroke-linejoin:miter;stroke:rgb(0%,0%,0%);stroke-opacity:1;stroke-miterlimit:10;" d="M 264.75 173.691406 L 257.835938 202.246094 "/>
<path style="fill:none;stroke-width:1.2;stroke-linecap:butt;stroke-linejoin:miter;stroke:rgb(0%,0%,0%);stroke-opacity:1;stroke-miterlimit:10;" d="M 257.339844 174.921875 L 251.808594 197.761719 "/>
<path style="fill:none;stroke-width:1.2;stroke-linecap:butt;stroke-linejoin:miter;stroke:rgb(0%,0%,0%);stroke-opacity:1;stroke-miterlimit:10;" d="M 257.835938 202.246094 L 229.648438 210.535156 "/>
<path style="fill:none;stroke-width:1.2;stroke-linecap:butt;stroke-linejoin:miter;stroke:rgb(0%,0%,0%);stroke-opacity:1;stroke-miterlimit:10;" d="M 229.648438 210.535156 L 208.378906 190.269531 "/>
<path style="fill:none;stroke-width:1.2;stroke-linecap:butt;stroke-linejoin:miter;stroke:rgb(0%,0%,0%);stroke-opacity:1;stroke-miterlimit:10;" d="M 232.289062 203.503906 L 215.273438 187.289062 "/>
<path style="fill:none;stroke-width:1.2;stroke-linecap:butt;stroke-linejoin:miter;stroke:rgb(0%,0%,0%);stroke-opacity:1;stroke-miterlimit:10;" d="M 157.457031 73.78125 L 128.558594 79.074219 "/>
<path style="fill:none;stroke-width:1.2;stroke-linecap:butt;stroke-linejoin:miter;stroke:rgb(0%,0%,0%);stroke-opacity:1;stroke-miterlimit:10;" d="M 128.558594 79.074219 L 124.664062 108.195312 "/>
</g>
</svg>

<svg xmlns="http://www.w3.org/2000/svg" xmlns:xlink="http://www.w3.org/1999/xlink" width="300pt" height="300pt" viewBox="0 0 300 300"><defs><symbol overflow="visible"><path d="M.594 2.125V-8.47h6V2.126zm.672-.672h4.671V-7.78h-4.67zm0 0"/></symbol><symbol overflow="visible" id="a"><path d="M7.734-8.078v1.25c-.406-.375-.836-.65-1.28-.828-.45-.188-.93-.282-1.438-.282-1 0-1.766.31-2.297.922-.533.618-.798 1.5-.798 2.657 0 1.15.266 2.028.797 2.64.53.618 1.296.923 2.296.923.507 0 .988-.094 1.437-.28.445-.19.875-.462 1.28-.83V-.67c-.417.28-.858.496-1.327.64-.46.134-.945.204-1.453.204-1.336 0-2.383-.406-3.14-1.22-.762-.81-1.14-1.913-1.14-3.31 0-1.408.378-2.517 1.14-3.33.757-.812 1.804-1.218 3.14-1.218.52 0 1.008.074 1.47.22.468.135.905.338 1.31.608zm0 0"/></symbol><symbol overflow="visible" id="b"><path d="M1.125-9.125h1.078V0H1.125zm0 0"/></symbol><symbol overflow="visible" id="c"><path d="M1.172-8.75h1.594l3.89 7.313V-8.75h1.14V0H6.204L2.328-7.313V0H1.172zm0 0"/></symbol></defs><g><path fill="#fff" d="M0 0h300v300H0z"/><path d="M35.25 182.223l14.648-1.125" stroke-width="1.2" stroke="#0c0" stroke-miterlimit="10" fill="none"/><path d="M49.898 181.098l14.645-1.12" stroke-width="1.2" stroke="#000" stroke-miterlimit="10" fill="none"/><path d="M23.25 175.223h12v14h-12zm0 0" fill="#fff"/><g fill="#0c0"><use xlink:href="#a" x="23.25" y="186.361"/><use xlink:href="#b" x="31.629" y="186.361"/></g><path d="M64.543 179.977l16.594 24.246M71.906 178.496l13.274 19.4M77.246 153.484l-12.703 26.493M81.137 204.223l29.293-2.246M110.43 201.977l8.297 12.12" stroke-width="1.2" stroke="#000" stroke-miterlimit="10" fill="none"/><path d="M118.727 214.098l8.293 12.12" stroke-width="1.2" stroke="#00f" stroke-miterlimit="10" fill="none"/><path d="M117.793 200.496l6.637 9.7" stroke-width="1.2" stroke="#000" stroke-miterlimit="10" fill="none"/><path d="M124.43 210.195l6.636 9.696" stroke-width="1.2" stroke="#00f" stroke-miterlimit="10" fill="none"/><path d="M123.13 175.484l-12.7 26.493" stroke-width="1.2" stroke="#000" stroke-miterlimit="10" fill="none"/><path d="M127.02 226.22l14.648-1.122" stroke-width="1.2" stroke="#00f" stroke-miterlimit="10" fill="none"/><path d="M141.668 225.098l14.648-1.125" stroke-width="1.2" stroke="#000" stroke-miterlimit="10" fill="none"/><path d="M123.02 219.22h9v14h-9zm0 0" fill="#fff"/><use xlink:href="#c" x="123.02" y="230.357" fill="#00f"/><path d="M156.316 223.973l12.7-26.493M151.352 218.336l10.16-21.195M169.016 197.48l-16.594-24.246M152.422 173.234l-29.293 2.25M150.023 180.355l-23.433 1.797M152.422 173.234l12.703-26.488M123.13 175.484l-16.59-24.246M106.54 151.238l-29.294 2.246M104.137 158.355l-23.434 1.797M165.125 146.746l-13.97-25.848M169.81 140.875l-11.173-20.68M194.023 141.45l-28.898 5.296M151.156 120.898l10.133-10.636" stroke-width="1.2" stroke="#000" stroke-miterlimit="10" fill="none"/><path d="M161.29 110.262l10.132-10.637" stroke-width="1.2" stroke="#00f" stroke-miterlimit="10" fill="none"/><path d="M124.664 108.195l26.492 12.703" stroke-width="1.2" stroke="#000" stroke-miterlimit="10" fill="none"/><path d="M171.422 99.625l26.492 12.703M171.422 99.625l-6.98-12.922" stroke-width="1.2" stroke="#00f" stroke-miterlimit="10" fill="none"/><path d="M164.44 86.703l-6.983-12.922" stroke-width="1.2" stroke="#000" stroke-miterlimit="10" fill="none"/><path d="M167.422 92.625h9v14h-9zm0 0" fill="#fff"/><use xlink:href="#c" x="167.422" y="103.764" fill="#00f"/><path d="M197.914 112.328l-1.945 14.56" stroke-width="1.2" stroke="#00f" stroke-miterlimit="10" fill="none"/><path d="M195.97 126.887l-1.947 14.562" stroke-width="1.2" stroke="#000" stroke-miterlimit="10" fill="none"/><path d="M190.676 114.324l-1.56 11.65" stroke-width="1.2" stroke="#00f" stroke-miterlimit="10" fill="none"/><path d="M189.117 125.973l-1.558 11.648" stroke-width="1.2" stroke="#000" stroke-miterlimit="10" fill="none"/><path d="M193.914 105.328h9v14h-9zm0 0" fill="#fff"/><use xlink:href="#c" x="193.914" y="116.467" fill="#00f"/><path d="M194.023 141.45l21.27 20.265M215.293 161.715l14.094-4.145" stroke-width="1.2" stroke="#000" stroke-miterlimit="10" fill="none"/><path d="M229.387 157.57l14.093-4.144" stroke-width="1.2" stroke="#00f" stroke-miterlimit="10" fill="none"/><path d="M220.063 167.516l11.273-3.313" stroke-width="1.2" stroke="#000" stroke-miterlimit="10" fill="none"/><path d="M231.336 164.203l11.273-3.316" stroke-width="1.2" stroke="#00f" stroke-miterlimit="10" fill="none"/><path d="M208.38 190.27l6.913-28.555" stroke-width="1.2" stroke="#000" stroke-miterlimit="10" fill="none"/><path d="M243.48 153.426l10.633 10.133" stroke-width="1.2" stroke="#00f" stroke-miterlimit="10" fill="none"/><path d="M254.113 163.56l10.637 10.13" stroke-width="1.2" stroke="#000" stroke-miterlimit="10" fill="none"/><path d="M239.48 146.426h9v14h-9zm0 0" fill="#fff"/><use xlink:href="#c" x="239.48" y="157.564" fill="#00f"/><path d="M264.75 173.69l-6.914 28.556M257.34 174.922l-5.53 22.84M257.836 202.246l-28.188 8.29M229.648 210.535l-21.27-20.265M232.29 203.504l-17.017-16.215M157.457 73.78l-28.898 5.294M128.56 79.074l-3.896 29.12" stroke-width="1.2" stroke="#000" stroke-miterlimit="10" fill="none"/></g></svg>
